ametion_vv-test/img/icons/social/twitter.svg

<svg width="57" height="56" viewBox="0 0 57 56" fill="none" xmlns="http://www.w3.org/2000/svg">
<g clip-path="url(#clip0_1_222)">
<rect x="0.00213623" width="55.9994" height="55.9994" fill="#F9F9F9"/>
<path d="M39.3029 21.2415C38.4458 21.6216 37.5239 21.8786 36.557 21.9934C37.5442 21.402 38.3018 20.4661 38.6594 19.3492C37.7357 19.8971 36.7121 20.2946 35.6237 20.5089C34.7517 19.5802 33.5092 18.9998 32.1334 18.9998C29.4938 18.9998 27.353 21.1406 27.353 23.7803C27.353 24.1549 27.3954 24.5197 27.4774 24.8698C23.5044 24.6705 19.9817 22.7674 17.6238 19.8743C17.2123 20.5802 16.9763 21.402 16.9763 22.2779C16.9763 23.936 17.8209 25.3999 19.1029 26.2569C18.3197 26.2323 17.582 26.0174 16.9378 25.6584C16.9375 25.6787 16.9375 25.699 16.9375 25.719C16.9375 28.0352 18.586 29.9672 20.7725 30.406C20.3717 30.5158 19.9486 30.5739 19.5133 30.5739C19.2045 30.5739 18.9054 30.5444 18.6138 30.4887C19.222 32.3875 20.9871 33.7697 23.0795 33.8086C21.4431 35.0909 19.3821 35.855 17.1418 35.855C16.7567 35.855 16.3753 35.8325 16.002 35.7879C18.1165 37.1448 20.6299 37.9359 23.3294 37.9359C32.1224 37.9359 36.931 30.6517 36.931 24.3339C36.931 24.1268 36.9264 23.9204 36.9171 23.7157C37.8519 23.0419 38.6622 22.2002 39.3029 21.2415Z" fill="#36BA5F"/>
</g>
<defs>
<clipPath id="clip0_1_222">
<path d="M0.00213623 13.3311C0.00213623 5.96852 5.97066 0 13.3332 0H42.6705C50.033 0 56.0015 5.96852 56.0015 13.3311V42.6683C56.0015 50.0309 50.033 55.9994 42.6705 55.9994H13.3332C5.97065 55.9994 0.00213623 50.0309 0.00213623 42.6683V13.3311Z" fill="white"/>
</clipPath>
</defs>
</svg>

<svg width="57" height="56" fill="none" xmlns="http://www.w3.org/2000/svg"><g clip-path="url(#clip0_1_222)"><path fill="#F9F9F9" d="M.002 0h55.999v55.999H.002z"/><path d="M39.303 21.241a9.537 9.537 0 01-2.746.752 4.793 4.793 0 002.102-2.644 9.572 9.572 0 01-3.035 1.16 4.776 4.776 0 00-3.49-1.51 4.781 4.781 0 00-4.657 5.87 13.57 13.57 0 01-9.853-4.995 4.78 4.78 0 001.48 6.383 4.747 4.747 0 01-2.166-.599v.061a4.783 4.783 0 003.835 4.687 4.764 4.764 0 01-2.16.083 4.786 4.786 0 004.466 3.32 9.592 9.592 0 01-5.937 2.046c-.385 0-.767-.022-1.14-.067a13.522 13.522 0 007.327 2.148c8.793 0 13.602-7.284 13.602-13.602 0-.207-.005-.414-.014-.618a9.694 9.694 0 002.386-2.475z" fill="#36BA5F"/></g><defs><clipPath id="clip0_1_222"><path d="M.002 13.331C.002 5.97 5.971 0 13.333 0H42.67c7.363 0 13.331 5.969 13.331 13.331v29.337c0 7.363-5.968 13.331-13.33 13.331H13.332C5.971 56 .003 50.031.003 42.67V13.33z" fill="#fff"/></clipPath></defs></svg>
